src/svgs/instagram.svg

<svg fill="none" height="50" viewBox="0 0 50 50" width="50" xmlns="http://www.w3.org/2000/svg"><g fill="#ee7d00"><path d="m36.4654 0h-22.9309c-7.46304 0-13.5345 6.07146-13.5345 13.5345v22.9313c0 7.4626 6.07146 13.5341 13.5345 13.5341h22.9313c7.4626 0 13.5341-6.0715 13.5341-13.5341v-22.9313c0-7.46304-6.0715-13.5345-13.5345-13.5345zm10.6033 36.4658c0 5.8464-4.7565 10.6029-10.6033 10.6029h-22.9309c-5.84676 0-10.60329-4.7565-10.60329-10.6029v-22.9313c0-5.84676 4.75653-10.60329 10.60329-10.60329h22.9313c5.8464 0 10.6029 4.75653 10.6029 10.60329z"/><path d="m24.9996 11.3281c-7.5386 0-13.6715 6.1329-13.6715 13.6715s6.1329 13.6715 13.6715 13.6715 13.6715-6.1329 13.6715-13.6715-6.1329-13.6715-13.6715-13.6715zm0 24.4118c-5.9219 0-10.7403-4.818-10.7403-10.7403 0-5.9219 4.8184-10.7403 10.7403-10.7403 5.9223 0 10.7403 4.8184 10.7403 10.7403 0 5.9223-4.818 10.7403-10.7403 10.7403z"/><path d="m38.9987 6.47363c-2.2277 0-4.0397 1.81236-4.0397 4.03977 0 2.2278 1.812 4.0401 4.0397 4.0401 2.2278 0 4.0402-1.8123 4.0402-4.0401 0-2.22779-1.8124-4.03977-4.0402-4.03977zm0 5.14827c-.6111 0-1.1085-.4974-1.1085-1.1085 0-.61151.4974-1.10856 1.1085-1.10856.6115 0 1.109.49705 1.109 1.10856 0 .6111-.4975 1.1085-1.109 1.1085z"/></g></svg>

<svg width="50" height="50" viewBox="0 0 50 50" fill="none" xmlns="http://www.w3.org/2000/svg">
<path d="M36.4654 0H13.5345C6.07146 0 0 6.07146 0 13.5345V36.4658C0 43.9284 6.07146 49.9999 13.5345 49.9999H36.4658C43.9284 49.9999 49.9999 43.9284 49.9999 36.4658V13.5345C49.9999 6.07146 43.9284 0 36.4654 0V0ZM47.0687 36.4658C47.0687 42.3122 42.3122 47.0687 36.4654 47.0687H13.5345C7.68774 47.0687 2.93121 42.3122 2.93121 36.4658V13.5345C2.93121 7.68774 7.68774 2.93121 13.5345 2.93121H36.4658C42.3122 2.93121 47.0687 7.68774 47.0687 13.5345V36.4658Z" fill="#EE7D00"/>
<path d="M24.9996 11.3281C17.461 11.3281 11.3281 17.461 11.3281 24.9996C11.3281 32.5382 17.461 38.6711 24.9996 38.6711C32.5382 38.6711 38.6711 32.5382 38.6711 24.9996C38.6711 17.461 32.5382 11.3281 24.9996 11.3281ZM24.9996 35.7399C19.0777 35.7399 14.2593 30.9219 14.2593 24.9996C14.2593 19.0777 19.0777 14.2593 24.9996 14.2593C30.9219 14.2593 35.7399 19.0777 35.7399 24.9996C35.7399 30.9219 30.9219 35.7399 24.9996 35.7399Z" fill="#EE7D00"/>
<path d="M38.9987 6.47363C36.771 6.47363 34.959 8.28599 34.959 10.5134C34.959 12.7412 36.771 14.5535 38.9987 14.5535C41.2265 14.5535 43.0389 12.7412 43.0389 10.5134C43.0389 8.28561 41.2265 6.47363 38.9987 6.47363ZM38.9987 11.6219C38.3876 11.6219 37.8902 11.1245 37.8902 10.5134C37.8902 9.90189 38.3876 9.40484 38.9987 9.40484C39.6102 9.40484 40.1077 9.90189 40.1077 10.5134C40.1077 11.1245 39.6102 11.6219 38.9987 11.6219Z" fill="#EE7D00"/>
</svg>
